X:99
T:99. Waltz Two-Hand (4ths CW, 3/4) — oom-pah-pah + chord echo
T:LH bass+chord+chord waltz under RH half-chord + quarter echo
C:Full 7-mode cycle in 3/4
M:3/4
L:1/4
Q:1/4=120
%%score {V1 V2}
V:V1 clef=treble
V:V2 clef=bass
K:C
[V:V1] "C" [cegc']2 [cegc'] | "F" [fac'f']2 [fac'f'] | "B°" [Bdfb]2 [Bdfb] | "Em" [egbe']2 [egbe'] | "Am" [ac'e'a']2 [ac'e'a'] | "Dm" [dfad']2 [dfad'] | "G" [gbd'g']2 [gbd'g'] | "C" [cegc']2 [cegc'] |]
[V:V2] "_8"C, [E,G,C] [E,G,C] | "_8"F, [A,CF] [A,CF] | "_8"B, [DFB] [DFB] | "_8"E, [G,B,E] [G,B,E] | "_8"A, [CEA] [CEA] | "_8"D, [F,A,D] [F,A,D] | "_8"G, [B,DG] [B,DG] | "_8"C, [E,G,C] [E,G,C] |]

